docs/images/icons/telegram-white.svg

<svg width="25" height="26" viewBox="0 0 25 26" fill="none" xmlns="http://www.w3.org/2000/svg">
<g clip-path="url(#clip0_339_370)">
<path d="M21.3507 4.30255C18.9975 1.94927 15.8686 0.65332 12.5407 0.65332C9.21281 0.65332 6.084 1.94927 3.73077 4.30255C1.37749 6.65578 0.081543 9.78459 0.081543 13.1125C0.081543 16.4404 1.37749 19.5692 3.73077 21.9225C6.084 24.2757 9.21281 25.5717 12.5407 25.5717C15.8686 25.5717 18.9975 24.2757 21.3507 21.9225C23.7039 19.5692 24.9999 16.4404 24.9999 13.1125C24.9999 9.78459 23.704 6.65578 21.3507 4.30255ZM12.5407 24.7848C6.10458 24.7848 0.868418 19.5486 0.868418 13.1125C0.868418 6.67636 6.10458 1.4402 12.5407 1.4402C18.9769 1.4402 24.213 6.67636 24.213 13.1125C24.213 19.5486 18.9769 24.7848 12.5407 24.7848Z" fill="white"/>
<path d="M19.5974 5.45415C19.4766 5.36314 19.3143 5.34951 19.18 5.41901L3.96665 13.288C3.83514 13.3559 3.75294 13.4921 3.75391 13.6401C3.75489 13.7882 3.83894 13.9231 3.97142 13.9894L7.95076 15.9789V19.9214C7.95076 20.0246 7.98585 20.1267 8.05686 20.2016C8.13541 20.2845 8.23981 20.326 8.34425 20.326C8.41005 20.326 8.47585 20.3096 8.53537 20.2765L13.088 17.7472L16.5726 19.2406C16.6467 19.2724 16.7287 19.2855 16.8081 19.2707C16.9714 19.2402 17.0927 19.1151 17.1237 18.9606L18.0053 14.5523C18.054 14.3088 17.8678 14.0817 17.6195 14.0817C17.4319 14.0816 17.2705 14.214 17.2337 14.3978L16.4471 18.3307L13.2206 16.9479C13.1088 16.9 12.981 16.9065 12.8745 16.9656L8.73769 19.2638V15.7357C8.73769 15.5867 8.65349 15.4505 8.52019 15.3838L5.01531 13.6314L18.8143 6.49395L17.6169 12.4813C17.5682 12.7248 17.7544 12.9519 18.0027 12.9519C18.1902 12.9519 18.3517 12.8195 18.3885 12.6356L19.7465 5.84554C19.7762 5.6973 19.7182 5.54511 19.5974 5.45415Z" fill="white"/>
<path d="M17.0464 8.67156C16.9227 8.51504 16.7013 8.47572 16.5314 8.58041L9.71164 12.7772C9.59528 12.8488 9.52441 12.9757 9.52441 13.1123V17.3091C9.52437 17.4916 9.64983 17.6501 9.82738 17.692C9.8576 17.6992 9.88792 17.7026 9.9179 17.7026C10.0642 17.7026 10.202 17.6206 10.2697 17.4851L11.8149 14.3946L17.0158 9.19373C17.1569 9.05259 17.17 8.82818 17.0464 8.67156ZM11.2134 13.8832C11.1835 13.9131 11.1586 13.9477 11.1397 13.9855L10.3113 15.6423V13.3321L14.0897 11.0069L11.2134 13.8832Z" fill="white"/>
</g>
<defs>
<clipPath id="clip0_339_370">
<rect width="24.9184" height="24.9184" fill="white" transform="translate(0.081543 0.65332)"/>
</clipPath>
</defs>
</svg>

<svg width="25" height="26" fill="none" xmlns="http://www.w3.org/2000/svg"><g clip-path="url(#a)" fill="#fff"><path d="M21.35 4.303a12.378 12.378 0 0 0-8.81-3.65 12.377 12.377 0 0 0-8.81 3.65 12.377 12.377 0 0 0-3.648 8.81c0 3.327 1.295 6.456 3.649 8.81a12.378 12.378 0 0 0 8.81 3.649c3.328 0 6.456-1.296 8.81-3.65A12.378 12.378 0 0 0 25 13.112c0-3.327-1.296-6.456-3.65-8.81Zm-8.81 20.482C6.106 24.785.869 19.549.869 13.113.868 6.676 6.105 1.44 12.541 1.44s11.672 5.236 11.672 11.673c0 6.436-5.236 11.672-11.672 11.672Z"/><path d="M19.597 5.454a.393.393 0 0 0-.417-.035L3.967 13.288a.393.393 0 0 0 .004.701l3.98 1.99v3.942a.395.395 0 0 0 .585.355l4.552-2.529 3.485 1.494a.394.394 0 0 0 .551-.28l.881-4.409a.393.393 0 0 0-.771-.154l-.787 3.933-3.226-1.383a.394.394 0 0 0-.347.018l-4.136 2.298v-3.528a.394.394 0 0 0-.218-.352L5.015 13.63l13.8-7.137-1.198 5.987a.393.393 0 1 0 .771.155l1.358-6.79a.393.393 0 0 0-.149-.392Z"/><path d="M17.046 8.672a.393.393 0 0 0-.515-.092l-6.82 4.197a.393.393 0 0 0-.187.335v4.197a.393.393 0 0 0 .746.176l1.545-3.09 5.2-5.201a.394.394 0 0 0 .031-.522Zm-5.833 5.211a.394.394 0 0 0-.073.103l-.829 1.656v-2.31l3.779-2.325-2.877 2.876Z"/></g><defs><clipPath id="a"><path fill="#fff" transform="translate(.082 .653)" d="M0 0h24.918v24.918H0z"/></clipPath></defs></svg>
